static/assets/images/products/kubevault/features/storageclasses.svg

<svg width="32" height="32" viewBox="0 0 32 32" fill="none" xmlns="http://www.w3.org/2000/svg">
<g clip-path="url(#clip0_4395_16373)">
<path fill-rule="evenodd" clip-rule="evenodd" d="M0.365784 18.4105C0.365784 17.1375 7.45149 16.0959 16.1829 16.0959C24.9143 16.0959 32 17.1375 32 18.4105C32 19.7067 24.9143 20.7251 16.1829 20.7251C7.45149 20.7251 0.365784 19.7067 0.365784 18.4105Z" fill="#326CE5"/>
<path fill-rule="evenodd" clip-rule="evenodd" d="M0 12.1143C0 13.3106 7.13626 14.2894 15.93 14.2894C24.7237 14.2894 31.86 13.3106 31.86 12.1143V18.0306C31.86 19.2269 24.7237 20.2057 15.93 20.2057C7.13626 20.2057 0 19.2269 0 18.0306V12.1143Z" fill="#326CE5" stroke="#326CE5" stroke-width="0.11" stroke-miterlimit="10" stroke-linecap="square"/>
<path d="M31.7485 22.1139C31.7485 23.41 24.6628 24.4285 15.9314 24.4285C7.19999 24.4285 0 23.41 0 22.1139C0 20.8408 7.08571 19.7993 15.8171 19.7993C24.5485 19.7993 31.7485 20.8408 31.7485 22.1139ZM31.7485 22.1139V28.4096C31.7485 29.6826 24.6628 30.7242 15.9314 30.7242C7.19999 30.7242 0.114286 29.6826 0.114286 28.4096V22.1139" stroke="#326CE5" stroke-width="0.5" stroke-linejoin="round" stroke-dasharray="0.86 0.22"/>
<path d="M31.7485 11.8371C31.7485 13.1101 24.6628 14.1517 15.9314 14.1517C7.19999 14.1517 0 13.1101 0 11.8371M31.7485 11.8371C31.7485 10.5409 24.5485 9.52246 15.8171 9.52246C7.08571 9.52246 0 10.5409 0 11.8371M31.7485 11.8371V18.1097C31.7485 19.4058 24.6628 20.4243 15.9314 20.4243C7.19999 20.4243 0 19.4058 0 18.1097V11.8371" stroke="#326CE5" stroke-width="0.5" stroke-linejoin="round"/>
<path d="M31.7485 4.31461C31.7485 5.61079 24.6628 6.62922 15.9314 6.62922C7.19999 6.62922 0 5.61079 0 4.31461M31.7485 4.31461C31.7485 3.04157 24.5485 2 15.8171 2C7.08571 2 0 3.04157 0 4.31461M31.7485 4.31461V10.6103C31.7485 11.9065 24.6628 12.925 15.9314 12.925C7.19999 12.925 0 11.9065 0 10.6103V4.31461" stroke="#326CE5" stroke-width="0.5" stroke-linejoin="round" stroke-dasharray="0.86 0.22"/>
</g>
<defs>
<clipPath id="clip0_4395_16373">
<rect width="32" height="32" fill="white"/>
</clipPath>
</defs>
</svg>

<svg xmlns="http://www.w3.org/2000/svg" width="32" height="32" fill="none" xmlns:v="https://vecta.io/nano"><g clip-path="url(#A)"><g fill-rule="evenodd" fill="#326ce5"><path d="M.366 18.411c0-1.273 7.086-2.315 15.817-2.315S32 17.138 32 18.411c0 1.296-7.086 2.315-15.817 2.315S.366 19.707.366 18.411z"/><g stroke="#326ce5"><path d="M0 12.114c0 1.196 7.136 2.175 15.93 2.175s15.93-.979 15.93-2.175v5.916c0 1.196-7.136 2.175-15.93 2.175S0 19.227 0 18.031v-5.916z" stroke-width=".11" stroke-miterlimit="10"/></g></g><g stroke-width=".5" stroke-linejoin="round"><path d="M31.749 22.114c0 1.296-7.086 2.315-15.817 2.315S0 23.41 0 22.114c0-1.273 7.086-2.315 15.817-2.315s15.931 1.042 15.931 2.315zm0 0v6.296c0 1.273-7.086 2.315-15.817 2.315S.114 29.683.114 28.41v-6.296" stroke="#326ce5" stroke-dasharray="0.86 0.22"/><path d="M31.749 11.837c0 1.273-7.086 2.315-15.817 2.315S0 13.11 0 11.837m31.749 0c0-1.296-7.2-2.315-15.931-2.315S0 10.541 0 11.837m31.749 0v6.273c0 1.296-7.086 2.315-15.817 2.315S0 19.406 0 18.11v-6.273" stroke="#326ce5"/><path d="M31.749 4.315c0 1.296-7.086 2.315-15.817 2.315S0 5.611 0 4.315m31.749 0c0-1.273-7.2-2.315-15.931-2.315S0 3.042 0 4.315m31.749 0v6.296c0 1.296-7.086 2.315-15.817 2.315S0 11.907 0 10.61V4.315" stroke="#326ce5" stroke-dasharray="0.86 0.22"/></g></g><defs><clipPath id="A"><path fill="#fff" d="M0 0h32v32H0z"/></clipPath></defs></svg>
